X:53
T:Hereditary Hall of Macleod, The
T:An tall'am bu gn\`a do Mhac Leoid
R:Slow Air
S:Simon Fraser Collection
N:No.37
O:Scottish
M:3/4
L:1/8
Q:1/4=120
K:F
|:f>d|c2 A2 G2|F2 Dz F>D|C2 F2 A2|c2 Az c>d|f2 a2 f>d|!
c2 A2 G2|F3 z:|
c>d|f2 a2 a>g|f2 d2 d2|c3 z||!
|:c>d|f2 a2 a>g|f2 dz f>d|c2 A2 G2|F2 Cz c>d|f2 a2 f>d|!
c2 A2 G2|F3 z:|
c>d|f2 a2 a>g|f2 d2 d2|c3 z||

